packages/foundations/assets/icons/functional/images/maps/navigation_u_turn_20.svg

<svg width="20" height="20" viewBox="0 0 20 20" fill="none" xmlns="http://www.w3.org/2000/svg">
<g clip-path="url(#clip0_2213_5433)">
<path fill-rule="evenodd" clip-rule="evenodd" d="M8.47498 1.97498C10.9603 1.97498 12.975 3.98969 12.975 6.47498V14.651L14.3012 13.3236C14.5174 13.1245 14.7605 13.025 15.0306 13.025C15.5609 13.025 16.025 13.4563 16.025 14.0203C16.025 14.2857 15.9256 14.5511 15.7267 14.7169L12.7211 17.7264C12.5554 17.9255 12.2902 18.025 12.025 18.025C11.793 18.025 11.5278 17.9255 11.3288 17.7264L8.32324 14.7169C8.15757 14.5511 8.02498 14.2857 8.02498 14.0203C8.02498 13.4563 8.48901 13.025 9.0194 13.025C9.28459 13.025 9.54978 13.1245 9.74872 13.3236L10.975 14.552V6.47498C10.975 5.09426 9.85569 3.97498 8.47498 3.97498C7.09426 3.97498 5.97498 5.09426 5.97498 6.47498V10.725C5.97498 11.2773 5.52726 11.725 4.97498 11.725C4.42269 11.725 3.97498 11.2773 3.97498 10.725V6.47498C3.97498 3.98969 5.98969 1.97498 8.47498 1.97498Z" fill="#1A1C1F"/>
</g>
<defs>
<clipPath id="clip0_2213_5433">
<rect width="20" height="20" fill="white"/>
</clipPath>
</defs>
</svg>

<svg xmlns="http://www.w3.org/2000/svg" width="20" height="20" fill="none"><g clip-path="url(#a)"><path fill="#1A1C1F" fill-rule="evenodd" d="M8.475 1.975a4.5 4.5 0 0 1 4.5 4.5v8.176l1.326-1.327q.324-.3.73-.299c.53 0 .994.431.994.995 0 .266-.1.531-.298.697l-3.006 3.01c-.166.198-.43.298-.696.298-.232 0-.497-.1-.696-.299l-3.006-3.01a1.03 1.03 0 0 1-.298-.696c0-.564.464-.995.994-.995.266 0 .53.1.73.299l1.226 1.228V6.475a2.5 2.5 0 0 0-5 0v4.25a1 1 0 1 1-2 0v-4.25a4.5 4.5 0 0 1 4.5-4.5" clip-rule="evenodd"/></g><defs><clipPath id="a"><path fill="#fff" d="M0 0h20v20H0z"/></clipPath></defs></svg>
